packages/bezier-icons/icons/star-circle-filled.svg

<svg width="24" height="24" viewBox="0 0 24 24" fill="none" xmlns="http://www.w3.org/2000/svg">
<path fill-rule="evenodd" clip-rule="evenodd" d="M12.0002 2.00012C17.5228 2.00012 22.0002 6.47717 22.0002 12.0001C22.0002 17.5231 17.5228 22.0001 12.0002 22.0001C6.47693 22.0001 2.00021 17.5234 2.00021 12.0001C2.00021 6.47684 6.47693 2.00012 12.0002 2.00012ZM14.7345 16.849L12.0002 14.9479L9.26588 16.849C8.6333 17.2888 7.78243 16.697 8.02415 15.9854L9.06816 12.9088L6.33384 11.0077C5.70183 10.5679 6.02698 9.61023 6.8087 9.61023H10.1882L11.2328 6.53368C11.4745 5.82211 12.5259 5.82211 12.7676 6.53368L13.8122 9.61023H17.1917C17.9734 9.61023 18.298 10.5679 17.666 11.0077L14.9317 12.9088L15.9763 15.9854C16.2174 16.697 15.3671 17.2888 14.7345 16.849Z" fill="#313234"/>
</svg>

<svg xmlns="http://www.w3.org/2000/svg" width="24" height="24" fill="none" viewBox="0 0 24 24"><path fill="#313234" fill-rule="evenodd" d="M12 2c5.523 0 10 4.477 10 10s-4.477 10-10 10S2 17.523 2 12 6.477 2 12 2m2.735 14.849L12 14.948l-2.734 1.901c-.633.44-1.484-.152-1.242-.864l1.044-3.076-2.734-1.901c-.632-.44-.307-1.398.475-1.398h3.38l1.044-3.076c.242-.712 1.293-.712 1.535 0l1.044 3.076h3.38c.781 0 1.106.958.474 1.398l-2.734 1.9 1.044 3.077c.241.712-.609 1.304-1.242.864" clip-rule="evenodd"/></svg>
